packages/ffe-icons/icons/filled/md/open_in_full.svg

<svg xmlns="http://www.w3.org/2000/svg" height="24" viewBox="0 -960 960 960" width="24"><path d="M176.155-140.001q-15.365 0-25.759-10.395-10.395-10.394-10.395-25.759v-233.846q0-12.749 8.629-21.374Q157.259-440 170.014-440q12.756 0 21.371 8.625Q200-422.75 200-410.001v168.233L718.232-760H549.999q-12.749 0-21.374-8.629Q520-777.257 520-790.013q0-12.755 8.625-21.37 8.625-8.616 21.374-8.616h233.846q15.365 0 25.759 10.395 10.395 10.394 10.395 25.759v233.846q0 12.749-8.629 21.374Q802.741-520 789.986-520q-12.756 0-21.371-8.625Q760-537.25 760-549.999v-168.233L241.768-200h168.233q12.749 0 21.374 8.629Q440-182.743 440-169.987q0 12.755-8.625 21.37-8.625 8.616-21.374 8.616H176.155Z"/></svg>

<svg xmlns="http://www.w3.org/2000/svg" height="24" viewBox="0 -960 960 960" width="24"><path d="M176.16-140q-15.37 0-25.76-10.4-10.4-10.39-10.4-25.76V-410q0-12.75 8.63-21.38 8.63-8.62 21.38-8.62 12.76 0 21.37 8.62Q200-422.75 200-410v168.23L718.23-760H550q-12.75 0-21.38-8.63-8.62-8.63-8.62-21.38 0-12.76 8.62-21.37Q537.25-820 550-820h233.84q15.37 0 25.76 10.4 10.4 10.39 10.4 25.76V-550q0 12.75-8.63 21.38-8.63 8.62-21.38 8.62-12.76 0-21.37-8.62Q760-537.25 760-550v-168.23L241.77-200H410q12.75 0 21.38 8.63 8.62 8.63 8.62 21.38 0 12.76-8.62 21.37Q422.75-140 410-140H176.16Z"/></svg>
